X:317
N:See #313 for more history
T:Sailor Boy, The
A:Down
O:Irish
R:song air
L:1/8
M:3/4
Z:Allan Garvin
K:G
"Rather slow"\
B|\
dd/B/ d>e BB|AG G3 A|BA/G/ A2 Bd|
ee d3 G|Bd g2 ba|g/e/d/e/ d2 gf|e/d/B d>e BB|AG G3||
